!!!OTL: 1692. Jenaisches Tafellied.
!!!ARE: Europa, Mitteleuropa, Deutschland
!!!SCT: E1692A
!!!TXL: @@DE. (@@LAT)
!!!YEM: Copyright 1995, estate of Helmut Schaffrath.
**kern	**text
*ICvox	*
*M3/4	*
*k[b-e-a-]	*
*E-:	*
=1	=1
!LO:TX:a:t=Einzelne.	!
!LO:TX:a:t=Keäftig u. froh.	!
!LO:TX:a:t=Alte Studentenlied.	!
{4b-/'	ça
4g'	ça,
4b-/'	ge-
=2	=2
(4b-/	-ſchmau-
8a-L	.
8gJ)	.
4a-}	-ſet,
=3	=3
{4a-'	laßt
4f'	uns
4a-'	nicht
=4	=4
8g	rap-
8f	-pel-
8g	-köp-
8a-	-fig
4g}	ſein!
=5	=5
{4b-/'	Wer
4g	nicht
4b-/'	mit
=6	=6
(4ee-	brau-
8ddL	.
8ccJ)	.
4b-}	-ſet,
=7	=7
{4cc	der
4b-	bleib
4a	da-
=8	=8
2b-	-heim!
4r}	.
=9||	=9||
!LO:TX:a:t=Chor.	!
{4.b-/^	E-
8a-X	-di-
4g	-te,
=10	=10
4.b-/^	bi-
8a-	-bi-
4g	-te,
=11	=11
4ee-	col-
4dd	-le-
4cc	-gi-
=12	=12
4cc	-a-
4b-	-les!
4r}	.
=13	=13
{4b-	post
4b-	mul-
4b-	-ta
=14	=14
4.b-/	sae-
8a-	-cu-
4g	-la
=15	=15
4.b-/	po-
8a-	-cu-
4g	-la
=16	=16
4f	nul-
4e-	-la!
4r}	.
==	==
!!!AGN: Staende -, Studenten - Lied, Trink -, Tafel - Lied
!!!ONB: ESAC (Essen Associative Code) Database: ERK3
!!!AMT: simple triple
!!!AIN: vox
!!!EED: Helmut Schaffrath
!!!EEV: 1.0
!!!GTL: Staendelieder (Berufslieder). 10. Einige Studentenlieder.
!!!URL-scan: https://rosdok.uni-rostock.de/mcrviewer/recordIdentifier/rosdok_ppn745177999/iview2/phys_0499.iview2?x=-449.8344612962892&y=448.5167559348047&scale=0.47549036216460333&rotation=0&layout=singlePageLayout
!!!ENC: Anna Maria Matuszewska
!!!EEV: 2025/08/01
*-	*-
